!!!COM: Victoria, Thom&aacute; Luis de
!!!CDT: ~1548///-1611///
!!!CNT@EN: Spanish
!!!PDT: 1592
!!!SCT: V 11,5
!!!SCA: Thomas Stratman, Cataloging the Works of Tomas Luis de Victoria.
!!!OTL: Gloria
!!!OPR: Missa Quarti Toni
**kern	**kern	**kern	**kern	**kern	**kern	**kern
*staff7	*staff6	*staff5	*staff4	*staff3	*staff2	*staff1
=1-	=1-	=1-	=1-	=1-	=1-	=1-
*clefF4	*clefF4	*clefF4	*clefF4	*clefG2	*clefF4	*clefG2
*k[]	*k[]	*k[]	*k[]	*k[]	*k[]	*k[]
*M4/4	*M4/4	*M4/4	*M4/4	*M4/4	*M4/4	*M4/4
2r	2r	1r	1r	2r	1r	4.a
.	.	.	.	.	.	8a
4.c	4.A	.	.	4.e	.	4a
.	.	.	.	.	.	4a
8c	8A	.	.	8e	.	.
=2	=2	=2	=2	=2	=2	=2
4c	4A	1r	1r	4e	1r	4e
4c	4A	.	.	4e	.	4a
4B	4E	.	.	4e	.	4g#
4c	4A	.	.	4e	.	4a
=3	=3	=3	=3	=3	=3	=3
4B	4G	1r	1r	4g	1r	4d
4A	4F	.	.	4d	.	2a
2B	2E	.	.	4e	.	.
.	.	.	.	[4e	.	4g#
=4	=4	=4	=4	=4	=4	=4
4.A	4.F	1r	1r	4e]	1r	4a
.	.	.	.	4d	.	4f
8A	8F	.	.	.	.	.
4G	4E	.	.	4e	.	4g
4A	4F	.	.	4c	.	8f
.	.	.	.	.	.	8e
=5	=5	=5	=5	=5	=5	=5
[2A	2D	1r	1r	2d	1r	2f
4A]	2E	.	.	2B	.	4e
4G#	.	.	.	.	.	4b
=6	=6	=6	=6	=6	=6	=6
1A	4r	1r	1r	4r	1r	4cc#
.	4AA	.	.	4e	.	4cc#
.	4D	.	.	4f#	.	2dd
.	4D	.	.	4f#	.	.
=7	=7	=7	=7	=7	=7	=7
4r	4E	1r	1r	2g	1r	2b
4E	4E	.	.	.	.	.
4A	4AA	.	.	4.e	.	4cc#
[4A	[4AA	.	.	.	.	[4cc#
.	.	.	.	8e	.	.
=8	=8	=8	=8	=8	=8	=8
8A]	8AA]	1r	1r	4e	1r	8cc#]
8A	8AA	.	.	.	.	8cc#
4A	4D	.	.	8f	.	4dd
.	.	.	.	8f	.	.
4c	2C	.	.	2e	.	2g
[4c	.	.	.	.	.	.
=9	=9	=9	=9	=9	=9	=9
4c]	2F	1r	1r	2f	1r	2a
2d	.	.	.	.	.	.
.	2G	.	.	4d	.	2b
[4e	.	.	.	[4g	.	.
=10	=10	=10	=10	=10	=10	=10
4e]	4A	1r	1r	4g]	1r	4cc
4c	4A	.	.	4f#	.	4cc
4d	2G	.	.	4g	.	2b
4B	.	.	.	4d	.	.
=11	=11	=11	=11	=11	=11	=11
4c	1r	1r	1r	4e	1r	1r
4d	.	.	.	4f#	.	.
4G	.	.	.	4g	.	.
4c	.	.	.	4e	.	.
=12	=12	=12	=12	=12	=12	=12
4B	2r	1r	1r	4d	1r	4r
2c	.	.	.	2e	.	2g
.	2G	.	.	.	.	.
4B	.	.	.	4d	.	4g
=13	=13	=13	=13	=13	=13	=13
2B	4G	1r	1r	2d	1r	2g
.	4G	.	.	.	.	.
4.c	4.F	.	.	4.f	.	4.a
8c	8F	.	.	8f	.	8a
=14	=14	=14	=14	=14	=14	=14
4c	2F	1r	1r	2f	1r	2a
2d	.	.	.	.	.	.
.	2A	.	.	2e	.	2a
4c#	.	.	.	.	.	.
=15	=15	=15	=15	=15	=15	=15
4d	2D	1r	1r	2f	1r	4a
4A	.	.	.	.	.	4a
4c	4r	.	.	4e	.	4g
[4c	4E	.	.	4e	.	[4g
=16	=16	=16	=16	=16	=16	=16
4c]	4G	1r	1r	4d	1r	8g]
.	.	.	.	.	.	8g
4B	2G	.	.	4.d	.	4g
2B	.	.	.	.	.	4d
.	.	.	.	8d	.	.
.	4G	.	.	4d	.	4g
=17	=17	=17	=17	=17	=17	=17
4A	4D	1r	1r	4d	1r	4f
4c	4E	.	.	4G	.	2e
8c	2F	.	.	2A	.	.
8B	.	.	.	.	.	.
[4A	.	.	.	.	.	4d
=18	=18	=18	=18	=18	=18	=18
4A]	1E	1r	1r	2.B	1r	4e
8G#	.	.	.	.	.	[4b
8F#	.	.	.	.	.	.
2G#	.	.	.	.	.	8b]
.	.	.	.	.	.	8b
.	.	.	.	[4e	.	4b
=19	=19	=19	=19	=19	=19	=19
2A	1r	1r	1r	8e]	1r	2.cc
.	.	.	.	8e	.	.
.	.	.	.	4e	.	.
2r	.	.	.	2f	.	.
.	.	.	.	.	.	4a
=20	=20	=20	=20	=20	=20	=20
4r	1r	1r	1r	4d	1r	4b
2A	.	.	.	4e	.	4cc
.	.	.	.	4f	.	8cc
.	.	.	.	.	.	8b
4B	.	.	.	[4g	.	8b
.	.	.	.	.	.	16a
.	.	.	.	.	.	16g#
=21	=21	=21	=21	=21	=21	=21
4c	2r	1r	1r	4g]	1r	2a
4d	.	.	.	4f#	.	.
4G	4r	.	.	4g	.	4g
[4c	[4C	.	.	[4e	.	[4g
=22	=22	=22	=22	=22	=22	=22
8c]	8C]	1r	1r	8e]	1r	8g]
8c	8C	.	.	8e	.	8g
4c	4C	.	.	4e	.	4g
4B	4GG	.	.	4d	.	4g
4A	4AA	.	.	4c	.	4e
=23	=23	=23	=23	=23	=23	=23
4G#	4E	1r	4B	1r	1r	4e
4A	4F	.	2A	.	.	4d
4B	2E	.	.	.	.	[2e
[4B	.	.	4G#	.	.	.
=24	=24	=24	=24	=24	=24	=24
8B]	4r	1r	2G#	1r	1r	2e]
8B	.	.	.	.	.	.
4B	[4E	.	.	.	.	.
[2c	8E]	.	2r	.	.	2r
.	8E	.	.	.	.	.
.	4E	.	.	.	.	.
=25	=25	=25	=25	=25	=25	=25
4c]	2F	1r	1r	1r	1r	1r
4A	.	.	.	.	.	.
4B	4D	.	.	.	.	.
4c	4E	.	.	.	.	.
=26	=26	=26	=26	=26	=26	=26
8c	4F	1r	1r	1r	1r	2r
8B	.	.	.	.	.	.
8B	2G	.	.	.	.	.
16A	.	.	.	.	.	.
16G	.	.	.	.	.	.
4A	.	.	.	.	.	4r
4A	4F	.	.	.	.	[4a
=27	=27	=27	=27	=27	=27	=27
2B	2E	1r	1r	4r	1r	4a]
.	.	.	.	2e	.	4g#
4r	2F	.	.	.	.	4.a
[4A	.	.	.	4d	.	.
.	.	.	.	.	.	8b
=28	=28	=28	=28	=28	=28	=28
4A]	2E	1r	1r	1e	1r	4cc
4G#	.	.	.	.	.	4b
[2A	2AA	.	.	.	.	2cc
=29	=29	=29	=29	=29	=29	=29
4A]	4E	1r	1r	2.e	1r	4b
4G#	[4E	.	.	.	.	[4b
2G#	8E]	.	.	.	.	8b]
.	8E	.	.	.	.	8b
.	4E	.	.	[4e	.	4b
=30	=30	=30	=30	=30	=30	=30
1r	2A	1r	1r	8e]	1r	2cc
.	.	.	.	8e	.	.
.	.	.	.	4e	.	.
.	2D	.	.	2f	.	4a
.	.	.	.	.	.	[4dd
=31	=31	=31	=31	=31	=31	=31
1r	2G	1r	1r	4d	1r	4dd]
.	.	.	.	4g	.	4b
.	2A	.	.	4e	.	8cc
.	.	.	.	.	.	8b
.	.	.	.	8f	.	8a
.	.	.	.	8e	.	8g
=32	=32	=32	=32	=32	=32	=32
4r	2B-	1r	1r	8d	1r	4f
.	.	.	.	8c	.	.
4d	.	.	.	4d	.	4g
4c	4A	.	.	2e	.	4a
4A	4A	.	.	.	.	4cc
=33	=33	=33	=33	=33	=33	=33
2B	4G	1r	1r	4r	1r	4b
.	4E	.	.	4e	.	4g
[2A	4.F	.	.	4d	.	4.a
.	.	.	.	4c	.	.
.	8E	.	.	.	.	8g
=34	=34	=34	=34	=34	=34	=34
1A]	4D	1r	1r	4d	1r	4f
.	4C#	.	.	[4e	.	4e
.	2D	.	.	8e]	.	2f
.	.	.	.	8d	.	.
.	.	.	.	[4d	.	.
=35	=35	=35	=35	=35	=35	=35
1A	1AA	1r	1r	4d]	1r	1e
.	.	.	.	4c#	.	.
.	.	.	.	2c#	.	.
=36	=36	=36	=36	=36	=36	=36
2r	1r	1r	1r	2r	1r	2e
2A	.	.	.	2e	.	2a
=37	=37	=37	=37	=37	=37	=37
2d	1r	1r	1r	2f	1r	4a
.	.	.	.	.	.	4a
4d	.	.	.	4f	.	4a
4d	.	.	.	4f	.	4a
=38	=38	=38	=38	=38	=38	=38
4d	1r	1r	1r	4f	1r	2.a
4c#	.	.	.	4e	.	.
8d	.	.	.	8f	.	.
8c	.	.	.	8e	.	.
8B	.	.	.	8d	.	8g#
8A	.	.	.	8c	.	8f#
=39	=39	=39	=39	=39	=39	=39
2B	1r	1r	1r	2d	1r	2g#
4A	.	.	.	4e	.	4a
[4A	.	.	.	[4c	.	4e
=40	=40	=40	=40	=40	=40	=40
4A]	1r	1r	1r	4c]	1r	4f#
4B	.	.	.	4d	.	2g
4c	.	.	.	4e	.	.
4c	.	.	.	4e	.	4g
=41	=41	=41	=41	=41	=41	=41
4.A	1r	1r	1r	4f	1r	1a
.	.	.	.	2e	.	.
8G	.	.	.	.	.	.
8F	.	.	.	.	.	.
8E	.	.	.	.	.	.
4F	.	.	.	4d	.	.
=42	=42	=42	=42	=42	=42	=42
2E	2r	1r	1r	4e	1r	1g#
.	.	.	.	4B	.	.
4r	2E	.	.	2e	.	.
4B	.	.	.	.	.	.
=43	=43	=43	=43	=43	=43	=43
2c	2A	1r	1r	4e	1r	1r
.	.	.	.	4e	.	.
4c	4A	.	.	4e	.	.
4c	4A	.	.	4e	.	.
=44	=44	=44	=44	=44	=44	=44
4c	4A	1r	1r	2.e	1r	1r
4B	4G#	.	.	.	.	.
8c	8A	.	.	.	.	.
8B	8G	.	.	.	.	.
8A	8F	.	.	8d	.	.
8G	8E	.	.	8c	.	.
=45	=45	=45	=45	=45	=45	=45
2A	2F	1r	1r	2d	1r	4r
.	.	.	.	.	.	[4a
4B	4E	.	.	2e	.	4a]
[4B	[4E	.	.	.	.	4g#
=46	=46	=46	=46	=46	=46	=46
4B]	4E]	1r	1r	4r	1r	4g#
4d	4D	.	.	2f	.	2a
4d	2D	.	.	.	.	.
[4d	.	.	.	4f	.	4a
=47	=47	=47	=47	=47	=47	=47
4d]	4.A	1r	1r	4e	1r	4a
4c#	.	.	.	8e	.	4a
.	8A	.	.	8e	.	.
4c#	4A	.	.	4e	.	[2a
4c#	4A	.	.	4e	.	.
=48	=48	=48	=48	=48	=48	=48
4d	4D	1r	1r	4f	1r	4a]
4B	4E	.	.	4e	.	4g#
2A	2F	.	.	4c	.	2a
.	.	.	.	4d	.	.
=49	=49	=49	=49	=49	=49	=49
2B	2E	1r	1r	2e	1r	4g#
.	.	.	.	.	.	4b
4r	2r	.	.	4A	.	4cc
4A	.	.	.	4e	.	8cc
.	.	.	.	.	.	8cc
=50	=50	=50	=50	=50	=50	=50
4e	1r	1r	1r	4g	1r	4b
8e	.	.	.	8g	.	4g
8e	.	.	.	8g	.	.
4d	.	.	.	4f	.	4a
4B	.	.	.	4d	.	[4dd
=51	=51	=51	=51	=51	=51	=51
2A	2r	1r	1r	4e	1r	8dd]
.	.	.	.	.	.	8cc
.	.	.	.	2a	.	8cc
.	.	.	.	.	.	16b
.	.	.	.	.	.	16a
2e	4r	.	.	.	.	2b
.	8E	.	.	4g#	.	.
.	8E	.	.	.	.	.
=52	=52	=52	=52	=52	=52	=52
4A	4F	1r	1r	4a	1r	1a
8c	4A	.	.	8e	.	.
8c	.	.	.	8e	.	.
4d	8D	.	.	4f	.	.
.	8E	.	.	.	.	.
4A	8F	.	.	4a	.	.
.	8D	.	.	.	.	.
=53	=53	=53	=53	=53	=53	=53
4B	4G	1r	1r	4d	1r	2r
8A	8F	.	.	2e	.	.
8G	8E	.	.	.	.	.
2A	2F	.	.	.	.	4r
.	.	.	.	4d	.	[4a
=54	=54	=54	=54	=54	=54	=54
1B	4E	1r	1r	4e	1r	4a]
.	[4E	.	.	[4e	.	4g#
.	8E]	.	.	8e]	.	2g#
.	8E	.	.	8e	.	.
.	4E	.	.	4e	.	.
=55	=55	=55	=55	=55	=55	=55
2r	2F	1r	1r	4c	1r	2a
.	.	.	.	2d	.	.
4r	4G	.	.	.	.	4g
[4A	4A	.	.	4c#	.	4e
=56	=56	=56	=56	=56	=56	=56
4A]	2D	1r	1r	8d	1r	2f
.	.	.	.	8c	.	.
2d	.	.	.	8B	.	.
.	.	.	.	8A	.	.
.	[2E	.	.	4G#	.	2e
4c	.	.	.	[4A	.	.
=57	=57	=57	=57	=57	=57	=57
2B	2E]	1r	1r	4A]	1r	4r
.	.	.	.	4G#	.	4b
4A	4r	.	.	4A	.	4cc
4A	4AA	.	.	4e	.	4cc
=58	=58	=58	=58	=58	=58	=58
4A	4D	1r	1r	4f	1r	4.a
4A	4D	.	.	4f	.	.
.	.	.	.	.	.	8a
4.G	4.GG	.	.	4.d	.	2b
8G	8GG	.	.	8d	.	.
=59	=59	=59	=59	=59	=59	=59
4G	4C	1r	1r	4e	1r	4r
4c	4C	.	.	4e	.	4g
4B	4G	.	.	4d	.	4g
8A	8A	.	.	8c	.	8e
8A	8A	.	.	8c	.	8e
=60	=60	=60	=60	=60	=60	=60
4c	4F	1r	1r	4f	1r	4a
4d	4D	.	.	4f	.	4a
4c#	4A	.	.	4e	.	4a
4d	[4D	.	.	4f	.	[4a
=61	=61	=61	=61	=61	=61	=61
*M2/4	*M2/4	*M2/4	*M2/4	*M2/4	*M2/4	*M2/4
4A	4D]	2r	2r	4f	2r	4a]
[4c	4E	.	.	4e	.	4g
=62	=62	=62	=62	=62	=62	=62
8c]	4.F	2r	2r	8A	2r	2f
8B	.	.	.	8B	.	.
8A	.	.	.	[4c	.	.
8G	8E	.	.	.	.	.
=63	=63	=63	=63	=63	=63	=63
2F	2D	2r	2r	4c]	2r	2f
.	.	.	.	4B	.	.
=64	=64	=64	=64	=64	=64	=64
*M3/4	*M3/4	*M3/4	*M3/4	*M3/4	*M3/4	*M3/4
2G	2C	2.r	2.r	2c	2.r	2e
4r	4r	.	.	4r	.	4r
=65	=65	=65	=65	=65	=65	=65
4c	4C	2.r	2.r	4e	2.r	4g
4c	4C	.	.	4e	.	4g
4B	4G	.	.	4d	.	4g
=66	=66	=66	=66	=66	=66	=66
2c	2F	2.r	2.r	2f	2.r	2a
4d	4D	.	.	4f	.	4a
=67	=67	=67	=67	=67	=67	=67
*M4/4	*M4/4	*M4/4	*M4/4	*M4/4	*M4/4	*M4/4
4B	4E	1r	1r	4e	1r	4g#
4r	4r	.	.	2r	.	4b
4r	4r	.	.	.	.	4cc
4r	4r	.	.	4e	.	8b
.	.	.	.	.	.	8b
=68	=68	=68	=68	=68	=68	=68
1r	1r	1r	1r	4f	1r	4a
.	.	.	.	8e	.	4g#
.	.	.	.	8e	.	.
.	.	.	.	4d	.	[4a
.	.	.	.	4c#	.	8a]
.	.	.	.	.	.	8g
=69	=69	=69	=69	=69	=69	=69
4r	4r	1r	1r	4d	1r	4f#
4B	2r	.	.	4G	.	4g
4c	.	.	.	4A	.	[4e
8B	4E	.	.	4e	.	4e]
8B	.	.	.	.	.	.
=70	=70	=70	=70	=70	=70	=70
4A	4F	1r	1r	8c	1r	4r
.	.	.	.	8d	.	.
4G#	8E	.	.	8e	.	4e
.	8E	.	.	8c	.	.
[4A	4D	.	.	4d	.	4f
4A]	4C#	.	.	4e	.	8e
.	.	.	.	.	.	8e
=71	=71	=71	=71	=71	=71	=71
4A	4D	1r	1r	4f	1r	4d
4A	4AA	.	.	8e	.	4c#
.	.	.	.	8e	.	.
[4A	4D	.	.	4d	.	4d
[4A	4AA	.	.	4c#	.	4e
=72	=72	=72	=72	=72	=72	=72
2A]	8D	1r	1r	[4d	1r	2f
.	8E	.	.	.	.	.
.	8F	.	.	4d]	.	.
.	8G	.	.	.	.	.
4r	4A	.	.	4c	.	4e
[4c	4AA	.	.	8A	.	[4ee
.	.	.	.	8B	.	.
=73	=73	=73	=73	=73	=73	=73
8c]	8AA	1r	1r	8c	1r	8ee]
8B	8BB	.	.	8d	.	8dd
4A	8C	.	.	8e	.	4cc
.	8D	.	.	8f	.	.
8G	8E	.	.	4g	.	2b
8A	8F	.	.	.	.	.
8B	4G	.	.	8d	.	.
8c	.	.	.	8e	.	.
=74	=74	=74	=74	=74	=74	=74
4d	8D	1r	1r	8f	1r	[4a
.	8E	.	.	8g	.	.
8A	8F	.	.	4a	.	4a]
8B	8G	.	.	.	.	.
8c	[4A	.	.	[4e	.	4r
8d	.	.	.	.	.	.
[4e	8A]	.	.	8e]	.	[4cc
.	16G	.	.	8f	.	.
.	16F	.	.	.	.	.
=75	=75	=75	=75	=75	=75	=75
4e]	8E	1r	1r	[4g	1r	4cc]
.	8F	.	.	.	.	.
8d	2G	.	.	8g]	.	8b
8c	.	.	.	16f	.	8a
.	.	.	.	16e	.	.
4B	.	.	.	8d	.	4g
.	.	.	.	8e	.	.
4c	8F	.	.	[4f	.	[4a
.	8E	.	.	.	.	.
=76	=76	=76	=76	=76	=76	=76
4d	4D	1r	1r	4f]	1r	8a]
.	.	.	.	.	.	8f
8c	4E	.	.	2e	.	4g
8B	.	.	.	.	.	.
2A	2F	.	.	.	.	[4a
.	.	.	.	4d	.	[4a
=77	=77	=77	=77	=77	=77	=77
1B	1E	1r	1r	1e	1r	4a]
.	.	.	.	.	.	4g#
.	.	.	.	.	.	2g#
==	==	==	==	==	==	==
*-	*-	*-	*-	*-	*-	*-
